projects/canopy/src/assets/brand-icons/active-fixed-income.svg

<svg xmlns="http://www.w3.org/2000/svg" width="320" height="320" fill="none" viewBox="0 0 320 320"><g id="am-active-fixed-income"><g id="lg-icon-fill-primary" fill="#42AEEA"><path d="M92 292H60v-64h32zm48 0h-32v-48h32zm48 0h-32v-72h32zm-68-188c8.837 0 16 7.163 16 16s-7.163 16-16 16-16-7.163-16-16 7.163-16 16-16"/><path fill-rule="evenodd" d="M268 28a8 8 0 0 1 8 8v152a8 8 0 0 1-8 8H52a8 8 0 0 1-8-8V36a8 8 0 0 1 8-8zM72 44c0 6.627-5.373 12-12 12v112c6.627 0 12 5.373 12 12h176c0-6.627 5.373-12 12-12V56c-6.627 0-12-5.373-12-12z" clip-rule="evenodd"/></g><g id="Outlines" fill="#1D1D1B"><path fill-rule="evenodd" d="M288 236.143V256c0 23.997-27.992 35.997-28 36 0 0-28-12-28-36v-19.857L260 228zm-48 6.004V256c0 8.648 5.025 15.628 11.206 20.926a52 52 0 0 0 4.794 3.637v-43.069zm24 38.416a52 52 0 0 0 4.794-3.637C274.975 271.628 280 264.648 280 256v-13.853l-16-4.653z" clip-rule="evenodd"/><path fill-rule="evenodd" d="M260 208c28.719 0 52 23.281 52 52s-23.281 52-52 52c-14.746 0-28.058-6.139-37.521-16H36a4 4 0 0 1 0-8h20v-60a4 4 0 0 1 4-4h32a4 4 0 0 1 4 4v60h8v-44a4 4 0 0 1 4-4h32a4 4 0 0 1 4 4v44h8v-68a4 4 0 0 1 4-4h32a4 4 0 0 1 4 4v68h24.175C211 279.918 208 270.309 208 260c0-28.719 23.281-52 52-52m0 8c-24.301 0-44 19.699-44 44s19.699 44 44 44 44-19.699 44-44-19.699-44-44-44M64 288h24v-56H64zm48 0h24v-40h-24zm48 0h24v-64h-24zm-40-188c11.046 0 20 8.954 20 20s-8.954 20-20 20-20-8.954-20-20 8.954-20 20-20m0 8c-6.627 0-12 5.373-12 12s5.373 12 12 12 12-5.373 12-12-5.373-12-12-12" clip-rule="evenodd"/><path d="M220 128a4 4 0 0 1 0 8h-56a4 4 0 0 1 0-8zm0-24a4 4 0 0 1 0 8h-56a4 4 0 0 1 0-8zm0-24a4 4 0 0 1 0 8H100a4 4 0 0 1 0-8z"/><path fill-rule="evenodd" d="M248 40a4 4 0 0 1 4 4 8 8 0 0 0 8 8l.206.005A4 4 0 0 1 264 56v112a4 4 0 0 1-4 4 8 8 0 0 0-8 8 4 4 0 0 1-4 4H72a4 4 0 0 1-4-4 8 8 0 0 0-8-8 4 4 0 0 1-4-4V56a4 4 0 0 1 4-4 8 8 0 0 0 8-8l.005-.206A4 4 0 0 1 72 40zM75.496 48A16.03 16.03 0 0 1 64 59.495v105.009A16.03 16.03 0 0 1 75.496 176h169.008A16.03 16.03 0 0 1 256 164.504V59.495A16.03 16.03 0 0 1 244.504 48z" clip-rule="evenodd"/><path fill-rule="evenodd" d="M268.31 24.004C274.794 24.168 280 29.476 280 36v152c0 6.627-5.373 12-12 12H52c-6.524 0-11.832-5.206-11.996-11.69L40 188V36c0-6.627 5.373-12 12-12h216zM52 32a4 4 0 0 0-4 4v152l.005.206A4 4 0 0 0 52 192h216a4 4 0 0 0 4-4V36a4 4 0 0 0-3.794-3.995L268 32z" clip-rule="evenodd"/></g></g></svg>

<svg width="320" height="320" viewBox="0 0 320 320" fill="none" xmlns="http://www.w3.org/2000/svg">
<g id="am-active-fixed-income">
<g id="lg-icon-fill-primary">
<path d="M92 292H60V228H92V292Z" fill="#42AEEA"/>
<path d="M140 292H108V244H140V292Z" fill="#42AEEA"/>
<path d="M188 292H156V220H188V292Z" fill="#42AEEA"/>
<path d="M120 104C128.837 104 136 111.163 136 120C136 128.837 128.837 136 120 136C111.163 136 104 128.837 104 120C104 111.163 111.163 104 120 104Z" fill="#42AEEA"/>
<path fill-rule="evenodd" clip-rule="evenodd" d="M268 28C272.418 28 276 31.5817 276 36V188C276 192.418 272.418 196 268 196H52C47.5817 196 44 192.418 44 188V36C44 31.5817 47.5817 28 52 28H268ZM72 44C72 50.6274 66.6274 56 60 56V168C66.6274 168 72 173.373 72 180H248C248 173.373 253.373 168 260 168V56C253.373 56 248 50.6274 248 44H72Z" fill="#42AEEA"/>
</g>
<g id="Outlines">
<path fill-rule="evenodd" clip-rule="evenodd" d="M288 236.143V256C288 279.997 260.008 291.997 260 292C260 292 232 280 232 256V236.143L260 228L288 236.143ZM240 242.147V256C240 264.648 245.025 271.628 251.206 276.926C252.833 278.321 254.473 279.533 256 280.563V237.494L240 242.147ZM264 280.563C265.527 279.533 267.167 278.321 268.794 276.926C274.975 271.628 280 264.648 280 256V242.147L264 237.494V280.563Z" fill="#1D1D1B"/>
<path fill-rule="evenodd" clip-rule="evenodd" d="M260 208C288.719 208 312 231.281 312 260C312 288.719 288.719 312 260 312C245.254 312 231.942 305.861 222.479 296H36C33.7909 296 32 294.209 32 292C32 289.791 33.7909 288 36 288H56V228C56 225.791 57.7909 224 60 224H92C94.2091 224 96 225.791 96 228V288H104V244C104 241.791 105.791 240 108 240H140C142.209 240 144 241.791 144 244V288H152V220C152 217.791 153.791 216 156 216H188C190.209 216 192 217.791 192 220V288H216.175C211 279.918 208 270.309 208 260C208 231.281 231.281 208 260 208ZM260 216C235.699 216 216 235.699 216 260C216 284.301 235.699 304 260 304C284.301 304 304 284.301 304 260C304 235.699 284.301 216 260 216ZM64 288H88V232H64V288ZM112 288H136V248H112V288ZM160 288H184V224H160V288Z" fill="#1D1D1B"/>
<path fill-rule="evenodd" clip-rule="evenodd" d="M120 100C131.046 100 140 108.954 140 120C140 131.046 131.046 140 120 140C108.954 140 100 131.046 100 120C100 108.954 108.954 100 120 100ZM120 108C113.373 108 108 113.373 108 120C108 126.627 113.373 132 120 132C126.627 132 132 126.627 132 120C132 113.373 126.627 108 120 108Z" fill="#1D1D1B"/>
<path d="M220 128C222.209 128 224 129.791 224 132C224 134.209 222.209 136 220 136H164C161.791 136 160 134.209 160 132C160 129.791 161.791 128 164 128H220Z" fill="#1D1D1B"/>
<path d="M220 104C222.209 104 224 105.791 224 108C224 110.209 222.209 112 220 112H164C161.791 112 160 110.209 160 108C160 105.791 161.791 104 164 104H220Z" fill="#1D1D1B"/>
<path d="M220 80C222.209 80 224 81.7909 224 84C224 86.2091 222.209 88 220 88H100C97.7909 88 96 86.2091 96 84C96 81.7909 97.7909 80 100 80H220Z" fill="#1D1D1B"/>
<path fill-rule="evenodd" clip-rule="evenodd" d="M248 40C250.209 40 252 41.7909 252 44C252 48.4183 255.582 52 260 52L260.206 52.0049C262.319 52.1121 264 53.86 264 56V168C264 170.209 262.209 172 260 172C255.582 172 252 175.582 252 180C252 182.209 250.209 184 248 184H72C69.7909 184 68 182.209 68 180C68 175.582 64.4183 172 60 172C57.7909 172 56 170.209 56 168V56C56 53.7909 57.7909 52 60 52C64.4183 52 68 48.4183 68 44L68.0049 43.7939C68.1121 41.6806 69.86 40 72 40H248ZM75.4961 48C74.049 53.6224 69.6223 58.0479 64 59.4951V164.504C69.6225 165.951 74.049 170.378 75.4961 176H244.504C245.951 170.378 250.378 165.951 256 164.504V59.4951C250.378 58.0479 245.951 53.6224 244.504 48H75.4961Z" fill="#1D1D1B"/>
<path fill-rule="evenodd" clip-rule="evenodd" d="M268.31 24.0039C274.794 24.1681 280 29.4761 280 36V188C280 194.627 274.627 200 268 200H52C45.4761 200 40.1681 194.794 40.0039 188.31L40 188V36C40 29.3726 45.3726 24 52 24H268L268.31 24.0039ZM52 32C49.7909 32 48 33.7909 48 36V188L48.0049 188.206C48.1121 190.319 49.86 192 52 192H268C270.209 192 272 190.209 272 188V36C272 33.86 270.319 32.1121 268.206 32.0049L268 32H52Z" fill="#1D1D1B"/>
</g>
</g>
</svg>
